icons/glyphs/glyph-brightness.svg

<?xml version="1.0" encoding="UTF-8" standalone="no"?><svg height="16" viewBox="0 0 4.2333332 4.2333332" width="16" xmlns="http://www.w3.org/2000/svg"><sodipodi:namedview/><metadata><rdf:RDF><cc:Work><dc:format>image/svg+xml</dc:format><dc:type/><dc:title/></cc:Work></rdf:RDF></metadata><path d="m1.8551215.00036272v.52309053h.5230906v-.52309053zm-1.0498085.4353042-.3700088.37000854.3700088.37000854.3700085-.37000854zm2.6227077 0-.3700086.37000854.3700086.37000854.3700083-.37000854zm-1.3117166.32430167a1.3569537 1.3569537 0 0 0 -1.3566981 1.35669801 1.3569537 1.3569537 0 0 0 1.3566981 1.3574236 1.3569537 1.3569537 0 0 0 1.3574236-1.3574236 1.3569537 1.3569537 0 0 0 -1.3574236-1.35669801zm-2.1163041 1.09551561v.5230904h.5230905v-.5230904zm3.7095174 0v .5230904h.5238158l-.0007428-.5230904zm-2.9042044 1.2028906-.3700088.3700086.3700088.3700083.3700085-.3700083zm2.6227077 0-.3700086.3700086.3700086.3700083.3700083-.3700083zm-1.5728992.6515052v.5230905h.5230906v-.5230905z" fill="#d0d0d0" stroke-linecap="square" stroke-width=".370417"/></svg>

<?xml version="1.0" encoding="UTF-8" standalone="no"?>
<!-- Created with Inkscape (http://www.inkscape.org/) -->

<svg
   xmlns:dc="http://purl.org/dc/elements/1.1/"
   xmlns:cc="http://creativecommons.org/ns#"
   xmlns:rdf="http://www.w3.org/1999/02/22-rdf-syntax-ns#"
   xmlns:svg="http://www.w3.org/2000/svg"
   xmlns="http://www.w3.org/2000/svg"
   xmlns:sodipodi="http://sodipodi.sourceforge.net/DTD/sodipodi-0.dtd"
   xmlns:inkscape="http://www.inkscape.org/namespaces/inkscape"
   width="16"
   height="16"
   viewBox="0 0 4.2333332 4.2333332"
   version="1.1"
   id="svg8"
   inkscape:version="0.92+devel (d0390b9f4f, 2017-07-31, custom)"
   sodipodi:docname="glyph-brightness.svg">
  <defs
     id="defs2" />
  <sodipodi:namedview
     id="base"
     pagecolor="#002466"
     bordercolor="#ffffff"
     borderopacity="0.38039216"
     inkscape:pageopacity="1"
     inkscape:pageshadow="2"
     inkscape:zoom="36.415999"
     inkscape:cx="10.094581"
     inkscape:cy="7.9162778"
     inkscape:document-units="px"
     inkscape:current-layer="svg8"
     inkscape:document-rotation="0"
     showgrid="false"
     inkscape:showpageshadow="false"
     borderlayer="true"
     inkscape:window-width="1920"
     inkscape:window-height="1051"
     inkscape:window-x="0"
     inkscape:window-y="0"
     inkscape:window-maximized="1"
     units="px" />
  <metadata
     id="metadata5">
    <rdf:RDF>
      <cc:Work
         rdf:about="">
        <dc:format>image/svg+xml</dc:format>
        <dc:type
           rdf:resource="http://purl.org/dc/dcmitype/StillImage" />
        <dc:title></dc:title>
      </cc:Work>
    </rdf:RDF>
  </metadata>
  <path
     style="font-variation-settings:normal;vector-effect:none;fill:#d0d0d0;stroke-width:0.37041667;stroke-linecap:square"
     d="M 1.8551215,3.62715e-4 V 0.52345325 H 2.3782121 V 3.62715e-4 Z M 0.805313,0.43566692 0.4353042,0.80567546 0.805313,1.175684 1.1753215,0.80567546 Z m 2.6227077,0 L 3.0580121,0.80567546 3.4280207,1.175684 3.798029,0.80567546 Z M 2.1163041,0.75996859 A 1.3569537,1.3569537 0 0 0 0.759606,2.1166666 1.3569537,1.3569537 0 0 0 2.1163041,3.4740902 1.3569537,1.3569537 0 0 0 3.4737277,2.1166666 1.3569537,1.3569537 0 0 0 2.1163041,0.75996859 Z M 0,1.8554842 V 2.3785746 H 0.5230905 V 1.8554842 Z m 3.7095174,0 V 2.3785746 H 4.2333332 L 4.2325904,1.8554842 Z M 0.805313,3.0583748 0.4353042,3.4283834 0.805313,3.7983917 1.1753215,3.4283834 Z m 2.6227077,0 L 3.0580121,3.4283834 3.4280207,3.7983917 3.798029,3.4283834 Z M 1.8551215,3.70988 V 4.2329705 H 2.3782121 V 3.70988 Z"
     id="path818"
     inkscape:connector-curvature="0" />
</svg>
